public/icons/img/deposit-check.svg

<?xml version="1.0" encoding="UTF-8"?>
<svg width="67px" height="40px" viewBox="0 0 67 40" version="1.1" xmlns="http://www.w3.org/2000/svg" xmlns:xlink="http://www.w3.org/1999/xlink">
    <title>UI Elements/Icon / Account Details / Card Services</title>
    <defs>
        <rect id="path-1" x="0" y="0" width="55.3402367" height="28.5687112" rx="1"></rect>
    </defs>
    <g id="Iconography-&amp;-Interface-Details" stroke="none" stroke-width="1" fill="none" fill-rule="evenodd">
        <g id="Icons" transform="translate(-618.000000, -164.000000)">
            <g id="UI-Elements/Icon-/-Account-Details-/-Card-Services" transform="translate(615.000000, 153.000000)">
                <rect id="Rectangle" x="0" y="0" width="72" height="63"></rect>
                <g id="Deposit-a-Check" transform="translate(3.323077, 11.250000)">
                    <path d="M2.21538462,2.25 L12.1757396,2.25 C12.7875012,2.25 13.283432,1.74632034 13.283432,1.125 C13.283432,0.503679656 12.7875012,0 12.1757396,0 L1.10769231,0 C0.495930739,0 0,0.503679656 0,1.125 L0,12.1129658 C0,12.7342862 0.495930739,13.2379658 1.10769231,13.2379658 C1.71945388,13.2379658 2.21538462,12.7342862 2.21538462,12.1129658 L2.21538462,2.25 Z" id="Path-5" fill="#004B2E"></path>
                    <path d="M55.3420118,2.25 L65.3023669,2.25 C65.9141284,2.25 66.4100592,1.74632034 66.4100592,1.125 C66.4100592,0.503679656 65.9141284,0 65.3023669,0 L54.2343195,0 C53.622558,0 53.1266272,0.503679656 53.1266272,1.125 L53.1266272,12.1129658 C53.1266272,12.7342862 53.622558,13.2379658 54.2343195,13.2379658 C54.8460811,13.2379658 55.3420118,12.7342862 55.3420118,12.1129658 L55.3420118,2.25 Z" id="Path-5-Copy-2" fill="#004B2E" transform="translate(59.768343, 6.618983) scale(-1, 1) translate(-59.768343, -6.618983) "></path>
                    <path d="M2.21538462,28.621118 L12.1757396,28.621118 C12.7875012,28.621118 13.283432,28.1174384 13.283432,27.496118 C13.283432,26.8747977 12.7875012,26.371118 12.1757396,26.371118 L1.10769231,26.371118 C0.495930739,26.371118 0,26.8747977 0,27.496118 L0,38.4840839 C0,39.1054042 0.495930739,39.6090839 1.10769231,39.6090839 C1.71945388,39.6090839 2.21538462,39.1054042 2.21538462,38.4840839 L2.21538462,28.621118 Z" id="Path-5-Copy" fill="#004B2E" transform="translate(6.641716, 32.990101) scale(1, -1) translate(-6.641716, -32.990101) "></path>
                    <path d="M65.3023669,28.621118 C65.9141284,28.621118 66.4100592,28.1174384 66.4100592,27.496118 C66.4100592,26.8747977 65.9141284,26.371118 65.3023669,26.371118 L54.2343195,26.371118 C53.622558,26.371118 53.1266272,26.8747977 53.1266272,27.496118 L53.1266272,38.4840839 C53.1266272,39.1054042 53.622558,39.6090839 54.2343195,39.6090839 C54.8460811,39.6090839 55.3420118,39.1054042 55.3420118,38.4840839 L55.3420118,28.621118 L65.3023669,28.621118 Z" id="Path-5-Copy-3" fill="#004B2E" transform="translate(59.768343, 32.990101) scale(-1, -1) translate(-59.768343, -32.990101) "></path>
                    <g id="Icon" transform="translate(5.534911, 5.520186)">
                        <mask id="mask-2" fill="white">
                            <use xlink:href="#path-1"></use>
                        </mask>
                        <use id="Rectangle" fill="#00B16E" xlink:href="#path-1"></use>
                        <rect id="Rectangle" fill="#004B2E" mask="url(#mask-2)" x="4.42721893" y="23.0747283" width="46.4857988" height="1.09879658" rx="0.5"></rect>
                        <path d="M25.4565089,17.4069718 C25.4565089,13.419195 28.5350719,9.88916925 32.4926491,9.88916925 C36.4502264,9.88916925 35.0213249,19.7783385 32.4926491,19.7783385 C29.9639733,19.7783385 28.2041763,14.7354445 36.097726,14.7354445 C37.0476429,14.7354445 36.8559531,16.9109743 37.8756577,16.9109743 C38.8953622,16.9109743 38.7880017,15.4633154 40.3348879,15.4633154 C41.8817741,15.4633154 40.7708164,17.2211874 42.5275029,17.2211874 C44.2841895,17.2211874 44.1683296,15.2520457 46.4378863,15.2520457 C48.707443,15.2520457 46.4683051,16.9109743 50.8000785,16.9109743" id="Path-2" stroke="#023F2C" mask="url(#mask-2)"></path>
                        <path d="M8.79041733,11.2463362 C8.79041733,10.9376774 8.66362872,10.6723736 8.41004769,10.4504167 C8.15646667,10.2284599 7.74044154,10.0307825 7.16195983,9.85737872 C6.36159473,9.64582608 5.75736776,9.36318213 5.3492608,9.00943838 C4.94115384,8.65569462 4.73710342,8.18404336 4.73710342,7.59447044 C4.73710342,7.02223791 4.92431473,6.55578868 5.29874296,6.19510878 C5.67317119,5.83442887 6.18924045,5.61767738 6.84696623,5.54484778 L6.84696623,4.39518634 L7.78600376,4.39518634 L7.78600376,5.55004987 C8.45165395,5.63328369 8.96772321,5.88211441 9.33422704,6.29654949 C9.70073086,6.71098457 9.88398002,7.26673542 9.88398002,7.96381869 L8.71909802,7.96381869 C8.71909802,7.49216036 8.59429048,7.11067772 8.34467166,6.81935934 C8.09505284,6.52804095 7.74836524,6.38238394 7.30459845,6.38238394 C6.83705843,6.38238394 6.48739922,6.48902568 6.25561032,6.70231236 C6.02382141,6.91559903 5.9079287,7.20778005 5.9079287,7.57886418 C5.9079287,7.91526755 6.02778356,8.18750743 6.26749687,8.39559199 C6.50721018,8.60367655 6.94007442,8.80135392 7.56610257,8.98863002 C8.37835428,9.21752304 8.98060018,9.50276801 9.37285833,9.8443735 C9.76511647,10.185979 9.9612426,10.6498272 9.9612426,11.235932 C9.9612426,11.8324411 9.75719218,12.3066934 9.34908522,12.6587031 C8.94097827,13.0107128 8.38033488,13.2196613 7.66713825,13.2855547 L7.66713825,14.2843556 L6.734044,14.2843556 L6.734044,13.2907568 C6.052545,13.2283314 5.49388268,13.0107129 5.0580403,12.6378947 C4.62219792,12.2650766 4.41220428,11.7179958 4.42805309,10.996636 L4.43993965,10.9706255 L5.56916199,10.9706255 C5.56916199,11.5047092 5.72269508,11.8853249 6.02976585,12.1124839 C6.33683662,12.3396428 6.71423084,12.4532206 7.16195983,12.4532206 C7.67308408,12.4532206 8.0722701,12.3465789 8.35952985,12.1332922 C8.6467896,11.9200055 8.79041733,11.6243565 8.79041733,11.2463362 Z" id="$" fill="#004B2E" mask="url(#mask-2)"></path>
                    </g>
                </g>
            </g>
        </g>
    </g>
</svg>

<svg xmlns="http://www.w3.org/2000/svg" xmlns:xlink="http://www.w3.org/1999/xlink" width="67" height="40"
     xmlns:v="https://vecta.io/nano">
    <defs>
        <rect id="A" width="55.34" height="28.569" rx="1"/>
    </defs>
    <g transform="translate(.323 .25)" fill="none" fill-rule="evenodd">
        <path d="M2.215 2.25h9.96c.612 0 1.108-.504 1.108-1.125S12.788 0 12.176 0H1.108C.496 0 0 .504 0 1.125v10.988c0 .62.496 1.125 1.108 1.125s1.108-.504 1.108-1.125V2.25zm61.98 0h-9.96c-.612 0-1.108-.504-1.108-1.125S53.623 0 54.234 0h11.068c.612 0 1.108.504 1.108 1.125v10.988c0 .62-.496 1.125-1.108 1.125s-1.108-.504-1.108-1.125V2.25zm-61.98 35.1h9.96c.612 0 1.108.504 1.108 1.125s-.496 1.125-1.108 1.125H1.108C.496 39.6 0 39.105 0 38.484V27.496c0-.62.496-1.125 1.108-1.125s1.108.504 1.108 1.125v9.863zm52.02 0c-.612 0-1.108.504-1.108 1.125s.496 1.125 1.108 1.125h11.068c.612 0 1.108-.504 1.108-1.125v-10.99c0-.62-.496-1.125-1.108-1.125s-1.108.504-1.108 1.125v9.863h-9.96z"
              fill="#004b2e"/>
        <g transform="translate(5.535 5.52)">
            <mask id="B" fill="#fff">
                <use xlink:href="#A"/>
            </mask>
            <use fill="#00b16e" xlink:href="#A"/>
            <rect fill="#004b2e" mask="url(#B)" x="4.427" y="23.075" width="46.486" height="1.099" rx=".5"/>
            <path d="M25.457 17.407c0-3.988 3.08-7.518 7.036-7.518s2.53 9.89 0 9.89-4.288-5.043 3.605-5.043c.95 0 .758 2.176 1.778 2.176s.912-1.448 2.46-1.448.436 1.758 2.193 1.758 1.64-1.97 3.9-1.97.03 1.66 4.362 1.66"
                  stroke="#023f2c" mask="url(#B)"/>
            <path d="M8.8 11.246c0-.31-.127-.574-.38-.796s-.67-.42-1.248-.593c-.8-.212-1.405-.494-1.813-.848s-.612-.825-.612-1.415c0-.572.187-1.04.562-1.4s.9-.577 1.548-.65v-1.15h.94V5.55c.666.083 1.182.332 1.548.746s.55.97.55 1.667H8.72c0-.472-.125-.853-.374-1.144s-.596-.437-1.04-.437c-.468 0-.817.107-1.05.32s-.348.505-.348.877c0 .336.12.61.36.817s.673.406 1.3.593c.812.23 1.414.514 1.807.856s.588.805.588 1.392c0 .597-.204 1.07-.612 1.423s-.97.56-1.682.627v1h-.933v-.994c-.68-.062-1.24-.28-1.676-.653s-.646-.92-.63-1.64l.012-.026h1.13c0 .534.154.915.46 1.142s.684.34 1.132.34c.51 0 .9-.107 1.198-.32s.43-.51.43-.887z"
                  fill="#004b2e" mask="url(#B)"/>
        </g>
    </g>
</svg>
